file-document-multiple.svg

<svg fill="currentColor" viewBox="0 0 24 24"><path d="M4 4v18h16v2H4c-1.1 0-2-.9-2-2V4zm11 3h5.5L15 1.5zM8 0h8l6 6v12c0 1.11-.89 2-2 2H8a2 2 0 0 1-2-2V2c0-1.11.89-2 2-2m9 16v-2H8v2zm3-4v-2H8v2z"/></svg>

<svg  viewBox="0 0 24 24" fill="currentColor"><path  d="M4 4V22H20V24H4C2.9 24 2 23.1 2 22V4H4M15 7H20.5L15 1.5V7M8 0H16L22 6V18C22 19.11 21.11 20 20 20H8C6.89 20 6 19.1 6 18V2C6 .89 6.89 0 8 0M17 16V14H8V16H17M20 12V10H8V12H20Z"/></svg>
